X:1920
T:Vals efter Mats Berglund
R:Vals
S:Efter Linnea Aall Cambell
O:Ort, Landskap
B:Svenska Låtar Landskap
Z:ABC-transkribering av Marie Carlsson
M:3/4
L:1/8
K:D
Q:140
a3 gfe|d4A2|F2 FA df|e4 e f| 
g3fed|c4B2|A2 Ac ec|1d2 AF D2:|2 d6|]
|:a2 fa fa|b2 a^g a2|a2 fa fa|b2 a^g a2|
gf ef g2|fe de f2|ed cd ec|1d2 AF D2:|2d6|] 
(:musicend:)
(:music:)
